; generated by Slic3r 1.2.9 on 2015-08-23 at 11:53:29

; external perimeters extrusion width = 0.40mm
; perimeters extrusion width = 0.40mm
; infill extrusion width = 0.60mm
; solid infill extrusion width = 0.40mm
; top infill extrusion width = 0.40mm

M107
M104 S240 ; set temperature
G28 ; home all axes
G1 Z5 F5000 ; lift nozzle

M109 S240 ; wait for temperature to be reached
G21 ; set units to millimeters
G90 ; use absolute coordinates
M82 ; use absolute distances for extrusion
G92 E0
G1 Z2.950 F36000.000
G1 E-2.00000 F2400.00000
G92 E0
G1 X71.057 Y70.528 F36000.000
G1 E2.00000 F2400.00000
G1 X72.671 Y69.692 E2.07198 F1080.000
G1 X81.131 Y67.442 E2.41870
G1 X82.210 Y67.300 E2.46181
G1 X117.790 Y67.300 E3.87101
G1 X118.869 Y67.442 E3.91412
G1 X127.329 Y69.692 E4.26084 F1080.000
G1 X128.947 Y70.531 E4.33300
G1 X130.056 Y71.976 E4.40516
G1 X130.450 Y73.750 E4.47714
G1 X130.450 Y126.250 E6.55648
G1 X130.054 Y128.029 E6.62864
G1 X128.943 Y129.472 E6.70081
G1 X127.329 Y130.308 E6.77278
G1 X118.869 Y132.558 E7.11950
G1 X117.790 Y132.700 E7.16262
G1 X82.210 Y132.700 E8.57181
G1 X81.131 Y132.558 E8.61493
G1 X72.671 Y130.308 E8.96164
G1 X71.053 Y129.469 E9.03381
G1 X69.944 Y128.024 E9.10597
G1 X69.550 Y126.250 E9.17795
G1 X69.550 Y73.750 E11.25729
G1 X69.946 Y71.971 E11.32945
G1 X71.020 Y70.575 E11.39923
G1 X71.655 Y71.142 F36000.000
G1 X71.835 Y70.941 E11.40995 F1080.000
G1 X72.876 Y70.465 E11.45528
G1 X81.336 Y68.215 E11.80200
G1 X82.210 Y68.100 E11.83690
G1 X117.790 Y68.100 E13.24610
G1 X118.664 Y68.215 E13.28100
G1 X127.124 Y70.465 E13.62772 F1080.000
G1 X128.558 Y71.254 E13.69256
G1 X129.457 Y72.622 E13.75739
G1 X129.650 Y73.750 E13.80272
G1 X129.650 Y126.250 E15.88206
G1 X129.256 Y127.839 E15.94689
G1 X128.165 Y129.059 E16.01173
G1 X127.124 Y129.535 E16.05706
G1 X118.664 Y131.785 E16.40378
G1 X117.790 Y131.900 E16.43868
G1 X82.210 Y131.900 E17.84788
G1 X81.336 Y131.785 E17.88278
G1 X72.876 Y129.535 E18.22950
G1 X71.442 Y128.746 E18.29433
G1 X70.543 Y127.378 E18.35917
G1 X70.350 Y126.250 E18.40450
G1 X70.350 Y73.750 E20.48384
G1 X70.744 Y72.161 E20.54867
G1 X71.615 Y71.187 E20.60041
G1 X72.158 Y71.921 F36000.000
G1 X73.082 Y71.238 E20.64592 F1080.000
G1 X81.542 Y68.988 E20.99264
G1 X82.210 Y68.900 E21.01933
G1 X117.790 Y68.900 E22.42853
G1 X118.458 Y68.988 E22.45522
G1 X126.918 Y71.238 E22.80193 F1080.000
G1 X128.145 Y71.970 E22.85850
G1 X128.850 Y73.750 E22.93434
G1 X128.850 Y126.250 E25.01368
G1 X128.457 Y127.623 E25.07025
G1 X126.918 Y128.762 E25.14609
G1 X118.458 Y131.012 E25.49281
G1 X117.790 Y131.100 E25.51950
G1 X82.210 Y131.100 E26.92870
G1 X81.542 Y131.012 E26.95539
G1 X73.082 Y128.762 E27.30211
G1 X71.855 Y128.030 E27.35867
G1 X71.150 Y126.250 E27.43452
G1 X71.150 Y73.750 E29.51385
G1 X71.543 Y72.377 E29.57042
G1 X72.110 Y71.957 E29.59838
G1 X72.489 Y72.534 F36000.000
G1 X73.287 Y72.011 E29.63621 F1080.000
G1 X81.747 Y69.761 E29.98292
G1 X82.210 Y69.700 E30.00140
G1 X117.790 Y69.700 E31.41060
G1 X118.253 Y69.761 E31.42908
G1 X126.713 Y72.011 E31.77580 F1080.000
G1 X127.693 Y72.674 E31.82266
G1 X128.050 Y73.750 E31.86758
G1 X128.050 Y126.250 E33.94691
G1 X127.661 Y127.367 E33.99378
G1 X126.713 Y127.989 E34.03870
G1 X118.253 Y130.239 E34.38541
G1 X117.790 Y130.300 E34.40389
G1 X82.210 Y130.300 E35.81309
G1 X81.747 Y130.239 E35.83157
G1 X73.287 Y127.989 E36.17828
G1 X72.307 Y127.326 E36.22515
G1 X71.950 Y126.250 E36.27007
G1 X71.950 Y73.750 E38.34940
G1 X72.339 Y72.633 E38.39626
G1 X72.439 Y72.567 E38.40098
G1 E36.40098 F2400.00000
G92 E0
G1 X120.569 Y120.686 F36000.000
G1 E2.00000 F2400.00000
G1 X120.943 Y120.357 E2.01975 F720.000
G1 X121.372 Y120.103 E2.03950
G1 X121.835 Y119.936 E2.05898
G1 X122.168 Y119.873 E2.07241
G1 X122.494 Y119.852 E2.08534 F720.000
G1 X122.996 Y119.897 E2.10531
G1 X123.475 Y120.037 E2.12510
G1 X123.920 Y120.263 E2.14485
G1 X124.314 Y120.569 E2.16460
G1 X124.643 Y120.943 E2.18434
G1 X124.894 Y121.366 E2.20382
G1 X125.019 Y121.682 E2.21727
G1 X125.103 Y122.010 E2.23071
G1 X125.149 Y122.500 E2.25019
G1 X125.103 Y122.990 E2.26967
G1 X125.019 Y123.318 E2.28311
G1 X124.894 Y123.634 E2.29656
G1 X124.643 Y124.057 E2.31604
G1 X124.314 Y124.431 E2.33578
G1 X123.920 Y124.737 E2.35553
G1 X123.475 Y124.963 E2.37528
G1 X122.996 Y125.103 E2.39504
G1 X122.500 Y125.149 E2.41479
G1 X122.010 Y125.103 E2.43427
G1 X121.682 Y125.019 E2.44771
G1 X121.366 Y124.894 E2.46116
G1 X120.943 Y124.643 E2.48064
G1 X120.569 Y124.314 E2.50038
G1 X120.263 Y123.920 E2.52013
G1 X120.037 Y123.475 E2.53988
G1 X119.897 Y122.996 E2.55964
G1 X119.851 Y122.500 E2.57939
G1 X119.897 Y122.004 E2.59914
G1 X120.037 Y121.525 E2.61889
G1 X120.263 Y121.080 E2.63864
G1 X120.532 Y120.734 E2.65601
G1 X120.465 Y120.300 F36000.000
G1 X74.987 Y101.255 F36000.000
G1 X74.987 Y74.987 E3.69638 F1800.000
G1 X83.447 Y74.987 E4.03145
G1 X83.447 Y72.737 E4.12056
G1 X116.553 Y72.737 E5.43174
G1 X116.553 Y74.987 E5.52086
G1 X125.013 Y74.987 E5.85593 F1800.000
G1 X125.013 Y120.099 E7.64262
G1 X124.350 Y119.585 E7.67583
G1 X123.771 Y119.290 E7.70157
G1 X123.145 Y119.108 E7.72740
G1 X122.504 Y119.049 E7.75288
G1 X122.067 Y119.077 E7.77024
G1 X121.623 Y119.162 E7.78814
G1 X121.030 Y119.376 E7.81311
G1 X120.470 Y119.707 E7.83885
G1 X119.983 Y120.136 E7.86458
G1 X119.585 Y120.650 E7.89032
G1 X119.290 Y121.229 E7.91606
G1 X119.108 Y121.853 E7.94180
G1 X119.047 Y122.500 E7.96754
G1 X119.108 Y123.147 E7.99328
G1 X119.290 Y123.771 E8.01903
G1 X119.585 Y124.350 E8.04477
G1 X120.099 Y125.013 E8.07797
G1 X116.553 Y125.013 E8.21842
G1 X116.553 Y127.263 E8.30753
G1 X83.447 Y127.263 E9.61871
G1 X83.447 Y125.013 E9.70782
G1 X74.987 Y125.013 E10.04290
G1 X74.987 Y101.315 E10.98147
G1 X74.188 Y101.315 F36000.000
G1 X74.188 Y74.188 E12.05590 F1800.000
G1 X82.647 Y74.188 E12.39097
G1 X82.647 Y71.938 E12.48008
G1 X117.352 Y71.938 E13.85462
G1 X117.352 Y74.188 E13.94374
G1 X125.812 Y74.188 E14.27881 F1800.000
G1 X125.812 Y125.812 E16.32349
G1 X117.352 Y125.812 E16.65856
G1 X117.352 Y128.062 E16.74767
G1 X82.647 Y128.062 E18.12221
G1 X82.647 Y125.812 E18.21133
G1 X74.188 Y125.812 E18.54640
G1 X74.188 Y101.375 E19.51428
G1 X74.534 Y101.115 F36000.000
G1 X75.478 Y124.143 F36000.000
G1 X75.857 Y124.522 E19.53553 F1800.000
G1 X76.989 Y124.522 E19.58038
G1 X75.478 Y123.011 E19.66506
G1 X75.478 Y121.880 E19.70991
G1 X78.120 Y124.522 E19.85801
G1 X79.252 Y124.522 E19.90285
G1 X75.478 Y120.748 E20.11437
G1 X75.478 Y119.616 E20.15922
G1 X80.384 Y124.522 E20.43417
G1 X81.516 Y124.522 E20.47901
G1 X75.478 Y118.484 E20.81738
G1 X75.478 Y117.353 E20.86223
G1 X82.647 Y124.522 E21.26401
G1 X83.938 Y125.813 F36000.000
G1 X84.897 Y126.772 E21.31780 F1800.000
G1 X86.029 Y126.772 E21.36265
G1 X75.478 Y116.221 E21.95395
G1 X75.478 Y115.089 E21.99879
G1 X87.161 Y126.772 E22.65351
G1 X88.293 Y126.772 E22.69836
G1 X75.478 Y113.957 E23.41650
G1 X75.478 Y112.826 E23.46135
G1 X89.424 Y126.772 E24.24291
G1 X90.556 Y126.772 E24.28776
G1 X75.478 Y111.694 E25.13275
G1 X75.478 Y110.562 E25.17759
G1 X91.688 Y126.772 E26.08600
G1 X92.820 Y126.772 E26.13085
G1 X75.478 Y109.430 E27.10268
G1 X75.478 Y108.299 E27.14752
G1 X93.951 Y126.772 E28.18278
G1 X95.083 Y126.772 E28.22762
G1 X75.478 Y107.167 E29.32630
G1 X75.478 Y106.035 E29.37114
G1 X96.215 Y126.772 E30.53324
G1 X97.347 Y126.772 E30.57809
G1 X75.478 Y104.903 E31.80361
G1 X75.478 Y103.771 E31.84845
G1 X98.479 Y126.772 E33.13739
G1 X99.610 Y126.772 E33.18224
G1 X75.478 Y102.640 E34.53460
G1 X75.478 Y101.508 E34.57945
G1 X100.742 Y126.772 E35.99524
G1 X101.874 Y126.772 E36.04008
G1 X75.478 Y100.376 E37.51929
G1 X75.478 Y99.244 E37.56414
G1 X103.006 Y126.772 E39.10677
G1 X104.137 Y126.772 E39.15161
G1 X75.478 Y98.113 E40.75766
G1 X75.478 Y96.981 E40.80251
G1 X105.269 Y126.772 E42.47198
G1 X106.401 Y126.772 E42.51683
G1 X75.478 Y95.849 E44.24973
G1 X75.478 Y94.717 E44.29457
G1 X107.533 Y126.772 E46.09089
G1 X108.664 Y126.772 E46.13574
G1 X75.478 Y93.586 E47.99548
G1 X75.478 Y92.454 E48.04032
G1 X109.796 Y126.772 E49.96348
G1 X110.928 Y126.772 E50.00833
G1 X75.478 Y91.322 E51.99492
G1 X75.478 Y90.190 E52.03976
G1 X112.060 Y126.772 E54.08977
G1 X113.191 Y126.772 E54.13461
G1 X75.478 Y89.059 E56.24804
G1 X75.478 Y87.927 E56.29289
G1 X114.323 Y126.772 E58.46974
G1 X115.455 Y126.772 E58.51459
G1 X75.478 Y86.795 E60.75486
G1 X75.478 Y85.663 E60.79970
G1 X116.062 Y126.248 E63.07403
G1 X116.062 Y125.116 E63.11887
G1 X75.478 Y84.532 E65.39319
G1 X75.478 Y83.400 E65.43804
G1 X116.600 Y124.522 E67.74249
G1 X117.732 Y124.522 E67.78734
G1 X75.478 Y82.268 E70.15521
G1 X75.478 Y81.136 E70.20006
G1 X118.864 Y124.522 E72.63135
G1 X118.597 Y123.124 E72.68777
G1 X75.478 Y80.005 E75.10412
G1 X75.478 Y78.873 E75.14896
G1 X118.616 Y122.011 E77.56639
G1 X118.859 Y121.123 E77.60290
G1 X75.478 Y77.741 E80.03395
G1 X75.478 Y76.609 E80.07879
G1 X119.255 Y120.387 E82.53201
G1 X119.767 Y119.767 E82.56387
G1 X75.498 Y75.498 E85.04465
G1 X76.609 Y75.478 E85.08871
G1 X120.390 Y119.258 E87.54210
G1 X121.132 Y118.868 E87.57531
G1 X77.741 Y75.478 E90.00687
G1 X78.873 Y75.478 E90.05172
G1 X122.013 Y118.618 E92.46925
G1 X123.124 Y118.597 E92.51329
G1 X80.005 Y75.478 E94.92967
G1 X81.136 Y75.478 E94.97451
G1 X124.522 Y118.864 E97.40581
G1 X124.522 Y117.732 E97.45066
G1 X82.268 Y75.478 E99.81854
G1 X83.400 Y75.478 E99.86338
G1 X124.522 Y116.600 E102.16784
G1 X124.522 Y115.468 E102.21268
G1 X83.938 Y74.884 E104.48700
G1 X83.938 Y73.752 E104.53185
G1 X124.522 Y114.337 E106.80617
G1 X124.522 Y113.205 E106.85102
G1 X84.545 Y73.228 E109.09129
G1 X85.677 Y73.228 E109.13614
G1 X124.522 Y112.073 E111.31299
G1 X124.522 Y110.941 E111.35784
G1 X86.809 Y73.228 E113.47127
G1 X87.940 Y73.228 E113.51611
G1 X124.522 Y109.810 E115.56612
G1 X124.522 Y108.678 E115.61097
G1 X89.072 Y73.228 E117.59756
G1 X90.204 Y73.228 E117.64240
G1 X124.522 Y107.546 E119.56557
G1 X124.522 Y106.414 E119.61041
G1 X91.336 Y73.228 E121.47016
G1 X92.467 Y73.228 E121.51500
G1 X124.522 Y105.283 E123.31132
G1 X124.522 Y104.151 E123.35617
G1 X93.599 Y73.228 E125.08907
G1 X94.731 Y73.228 E125.13391
G1 X124.522 Y103.019 E126.80339
G1 X124.522 Y101.887 E126.84824
G1 X95.863 Y73.228 E128.45429
G1 X96.994 Y73.228 E128.49914
G1 X124.522 Y100.756 E130.04177
G1 X124.522 Y99.624 E130.08662
G1 X98.126 Y73.228 E131.56583
G1 X99.258 Y73.228 E131.61067
G1 X124.522 Y98.492 E133.02646
G1 X124.522 Y97.360 E133.07131
G1 X100.390 Y73.228 E134.42367
G1 X101.521 Y73.228 E134.46852
G1 X124.522 Y96.229 E135.75746
G1 X124.522 Y95.097 E135.80231
G1 X102.653 Y73.228 E137.02783
G1 X103.785 Y73.228 E137.07268
G1 X124.522 Y93.965 E138.23478
G1 X124.522 Y92.833 E138.27962
G1 X104.917 Y73.228 E139.37830
G1 X106.048 Y73.228 E139.42315
G1 X124.522 Y91.702 E140.45840
G1 X124.522 Y90.570 E140.50325
G1 X107.180 Y73.228 E141.47508
G1 X108.312 Y73.228 E141.51993
G1 X124.522 Y89.438 E142.42834
G1 X124.522 Y88.306 E142.47319
G1 X109.444 Y73.228 E143.31818
G1 X110.575 Y73.228 E143.36302
G1 X124.522 Y87.175 E144.14459
G1 X124.522 Y86.043 E144.18944
G1 X111.707 Y73.228 E144.90758
G1 X115.103 Y73.228 F36000.000
G1 X116.062 Y74.187 E144.96137 F1800.000
G1 X116.062 Y75.319 E145.00622
G1 X113.971 Y73.228 E145.12343
G1 X112.839 Y73.228 E145.16828
G1 X124.522 Y84.911 E145.82300
G1 X124.522 Y83.779 E145.86785
G1 X116.221 Y75.478 E146.33306
G1 X117.353 Y75.478 E146.37791
G1 X124.522 Y82.647 E146.77970
G1 X124.522 Y81.516 E146.82454
G1 X118.484 Y75.478 E147.16291
G1 X119.616 Y75.478 E147.20776
G1 X124.522 Y80.384 E147.48271
G1 X124.522 Y79.252 E147.52755
G1 X120.748 Y75.478 E147.73908
G1 X121.880 Y75.478 E147.78393
G1 X124.522 Y78.120 E147.93203
G1 X124.522 Y76.989 E147.97688
G1 X123.011 Y75.478 E148.06156
G1 X124.143 Y75.478 E148.10640
G1 X124.522 Y75.857 E148.12766
G1 X125.391 Y123.522 F36000.000
G1 X125.345 Y123.764 E148.13743 F540.000
G1 X124.968 Y124.293 E148.16316
G1 X124.589 Y124.724 F36000.000
G1 X124.168 Y125.119 E148.18600 F540.000
G1 X123.932 Y125.303 E148.19785
G1 X123.521 Y125.390 E148.21448
G1 Z3.100 F36000.000
G1 X123.421 Y125.110 F36000.000
G1 X123.191 Y125.193 E148.21639 F2400.000
G1 X122.675 Y125.275 E148.22047
G1 X122.152 Y125.258 E148.22455
G1 X121.641 Y125.144 E148.22864
G1 X121.161 Y124.936 E148.23272
G1 X120.728 Y124.642 E148.23681
G1 X120.364 Y124.279 E148.24082
G1 X120.154 Y123.989 E148.24361
G1 X119.981 Y123.675 E148.24641
G1 X119.807 Y123.191 E148.25042
G1 X119.725 Y122.675 E148.25451
G1 X119.742 Y122.152 E148.25859
G1 X119.856 Y121.641 E148.26268
G1 X120.064 Y121.161 E148.26676
G1 X120.353 Y120.735 E148.27078
G1 X120.597 Y120.475 E148.27356
G1 X120.847 Y120.266 E148.27611
G1 X121.314 Y119.985 E148.28036
G1 X121.809 Y119.807 E148.28446
G1 X122.325 Y119.725 E148.28854 F2400.000
G1 X122.848 Y119.742 E148.29263
G1 X123.359 Y119.856 E148.29671
G1 X123.839 Y120.064 E148.30080
G1 X124.272 Y120.358 E148.30488
G1 X124.636 Y120.721 E148.30890
G1 X124.846 Y121.011 E148.31169
G1 X125.019 Y121.325 E148.31449
G1 X125.193 Y121.809 E148.31850
G1 X125.275 Y122.325 E148.32258
G1 X125.258 Y122.848 E148.32667
G1 X125.144 Y123.359 E148.33075
G1 X124.936 Y123.839 E148.33484
G1 X124.647 Y124.265 E148.33885
G1 X124.402 Y124.526 E148.34165
G1 X124.127 Y124.754 E148.34444
G1 X123.684 Y125.016 E148.34845
G1 X123.477 Y125.090 E148.35017
G1 X123.353 Y124.744 F36000.000
G1 X123.100 Y124.835 E148.35227 F2400.000
G1 X122.651 Y124.906 E148.35581
G1 X122.198 Y124.892 E148.35935
G1 X121.755 Y124.793 E148.36289
G1 X121.339 Y124.613 E148.36643
G1 X120.963 Y124.358 E148.36998
G1 X120.645 Y124.039 E148.37349
G1 X120.465 Y123.792 E148.37588
G1 X120.317 Y123.524 E148.37827
G1 X120.165 Y123.100 E148.38178
G1 X120.094 Y122.651 E148.38533
G1 X120.108 Y122.198 E148.38887
G1 X120.207 Y121.755 E148.39241
G1 X120.387 Y121.339 E148.39595
G1 X120.641 Y120.966 E148.39947
G1 X120.850 Y120.743 E148.40185
G1 X121.061 Y120.567 E148.40400
G1 X121.473 Y120.319 E148.40775
G1 X121.900 Y120.165 E148.41130
G1 X122.349 Y120.094 E148.41484 F2400.000
G1 X122.802 Y120.108 E148.41838
G1 X123.245 Y120.207 E148.42193
G1 X123.661 Y120.387 E148.42547
G1 X124.037 Y120.642 E148.42901
G1 X124.355 Y120.961 E148.43253
G1 X124.535 Y121.208 E148.43491
G1 X124.683 Y121.476 E148.43730
G1 X124.835 Y121.900 E148.44082
G1 X124.906 Y122.349 E148.44436
G1 X124.892 Y122.802 E148.44790
G1 X124.793 Y123.245 E148.45144
G1 X124.613 Y123.661 E148.45498
G1 X124.359 Y124.034 E148.45850
G1 X124.150 Y124.257 E148.46089
G1 X123.914 Y124.452 E148.46328
G1 X123.527 Y124.681 E148.46679
G1 X123.409 Y124.724 E148.46777
G1 X123.305 Y125.009 F36000.000
G1 X94.511 Y127.932 F36000.000
G1 X82.778 Y127.932 E148.55935 F6000.000
G1 X82.778 Y125.682 E148.57691
G1 X74.318 Y125.682 E148.64294
G1 X74.318 Y74.318 E149.04385
G1 X82.778 Y74.318 E149.10988
G1 X82.778 Y72.068 E149.12744
G1 X117.222 Y72.068 E149.39629
G1 X117.222 Y74.318 E149.41385
G1 X125.682 Y74.318 E149.47988 F6000.000
G1 X125.682 Y125.682 E149.88079
G1 X117.222 Y125.682 E149.94682
G1 X117.222 Y127.932 E149.96438
G1 X94.571 Y127.932 E150.14118
G1 X94.571 Y128.300 F36000.000
G1 X82.410 Y128.300 E150.23610 F6000.000
G1 X82.410 Y126.050 E150.25366
G1 X73.950 Y126.050 E150.31969
G1 X73.950 Y73.950 E150.72634
G1 X82.410 Y73.950 E150.79237
G1 X82.410 Y71.700 E150.80993
G1 X117.590 Y71.700 E151.08452
G1 X117.590 Y73.950 E151.10208
G1 X126.050 Y73.950 E151.16811 F6000.000
G1 X126.050 Y126.050 E151.57476
G1 X117.590 Y126.050 E151.64079
G1 X117.590 Y128.300 E151.65835
G1 X94.631 Y128.300 E151.83755
G1 X94.371 Y127.954 F36000.000
G1 X117.008 Y127.451 F36000.000
G1 X116.741 Y127.718 E151.84049 F6000.000
G1 X116.221 Y127.718 E151.84456
G1 X117.008 Y126.931 E151.85324
G1 X117.008 Y126.410 E151.85730
G1 X115.700 Y127.718 E151.87173
G1 X115.180 Y127.718 E151.87579
G1 X117.008 Y125.890 E151.89597
G1 X120.551 Y125.468 F36000.000
G1 X120.753 Y125.266 E151.89819 F6000.000
G1 X120.672 Y124.827 E151.90168
G1 X120.031 Y125.468 E151.90875
G1 X119.511 Y125.468 E151.91281
G1 X120.403 Y124.575 E151.92266
G1 X120.155 Y124.303 E151.92553
G1 X118.991 Y125.468 E151.93838
G1 X118.471 Y125.468 E151.94245
G1 X119.944 Y123.995 E151.95871
G1 X119.767 Y123.651 E151.96172
G1 X117.950 Y125.468 E151.98178
